X:1
T:Title
%%score { ( 1 3 ) | ( 2 4 ) }
L:1/8
Q:1/4=100
M:4/4
K:Ab
V:1 treble nm="Grand Piano"
V:3 treble 
V:2 bass 
V:4 bass 
V:1
 [CE][CE][CE][CE] [CEA]2 [CEA][Ec] | B2 c>B [DB] [CA]3 | FFFF [FA]2 [EG][DF] | z4 B4 | %4
w: Robert~Lowry * * * * * *||||
 EEEE [CEA]2 [CEA][Ec] | B2 c>B [DB] [CA]3 | [FA][FA][EG][DF] [CE]2 [EA][FB] | c2 c>B [CA]4 | %8
w: ||||
 c2 e>e c4 | [EA]2 [EB]>[EA] [DF]4 | [CE][CE][CE][CE] [CEA]2 [A,EA][Ec] | %11
w: |||
 [EB]2 [=DB]>[Dc] [EB]3 [EB] | [Ec]2 [Ec]>[DB] [DB]<[CA] [CEA]>[CEA] | %13
w: ||
 [B,FB]2 [Fc]>[Fc] [Fd]3 [EB] |[M:9/8] [Ec]2 [_Ge]- [Ge]/[Ge]/ [Fd]2- [Fd][FA][=EB] | %15
w: ||
[M:4/4] c2 c>B [CA]4 |] %16
w: |
V:2
 [A,,A,][A,,A,][A,,A,][A,,A,] A,,2 A,,[A,,A,] | [E,G,D]2 [E,G,E]>[E,G,D] [A,,A,] [A,,A,]3 | %2
 [D,A,D][D,A,D][D,A,D][D,A,D] [D,A,]2 [D,A,][D,A,] | z4 E2 z2 | %4
 [A,C][A,C][A,C][A,C] A,,2 A,,[A,,A,] | [E,G,D]2 [E,G,E]>[E,G,D] [A,,A,] [A,,A,]3 | %6
 [D,A,][D,A,][D,A,][D,A,] [A,,A,]2 [C,A,][D,A,] | [E,A,E]2 [E,G,E]>[E,G,D] [A,,A,]4 | %8
 [A,E]2 [A,CE]>[A,CE] [A,E]4 | [C,A,]2 [C,A,]>[C,A,] [D,A,]4 | %10
 [A,,A,][A,,A,][A,,A,][A,,A,] A,,2 C,[A,,A,] | [E,G,]2 [B,,F,]>[B,,A,] [E,G,]3 [E,G,] | %12
 [A,,A,]2 [A,,A,]>[A,,A,] [A,,A,]<[A,,A,] A,,>A,, | D,2 [C,=A,]>[C,A,] [B,,B,]3 [E,G,] | %14
[M:9/8] [A,,A,]2 [C,A,]- [C,A,]/[C,A,]/ [D,A,]2- [D,A,][D,A,][D,A,] | %15
[M:4/4] [E,A,E]2 [E,G,E]>[E,G,D] [A,,A,]4 |] %16
V:3
 x8 | x8 | x8 | [CE]2 [EA][Ec] z2 D2 | x8 | x8 | x8 | x8 | x8 | x8 | x8 | x8 | x8 | x8 | %14
[M:9/8] x9 |[M:4/4] x8 |] %16
V:4
 x8 | x8 | x8 | [A,,A,]2 [C,A,][A,,A,] [E,G,]4 | x8 | x8 | x8 | x8 | x8 | x8 | x8 | x8 | x8 | x8 | %14
[M:9/8] x9 |[M:4/4] x8 |] %16

